src/main/resources/icons/ClionCompdbIcons/icons/compDBLoadChanges_dark.svg

<svg width="16" height="16" viewBox="0 0 16 16" fill="none" xmlns="http://www.w3.org/2000/svg">
<path fill-rule="evenodd" clip-rule="evenodd" d="M5 3.97748C7.76142 3.97748 10 3.31095 10 2.48874C10 1.66653 7.76142 1 5 1C2.23858 1 0 1.66653 0 2.48874C0 3.31095 2.23858 3.97748 5 3.97748ZM10 3.91576C8.89403 4.55341 7.06686 4.97 5.00005 4.97C2.93318 4.97 1.10596 4.55339 0 3.9157V5.06926C0 5.89147 2.23858 6.558 5 6.558C7.76142 6.558 10 5.89147 10 5.06926V3.91576ZM6.32119 7.49232C5.89574 7.53039 5.45367 7.55045 5.00005 7.55045C2.93318 7.55045 1.10596 7.13384 0 6.49616V7.72237C0 8.50447 2.23858 9.13848 5 9.13848C5.21103 9.13848 5.41901 9.13478 5.62317 9.12759C5.73611 8.54401 5.94369 7.99316 6.32119 7.49232ZM5.50995 10.1224C5.48794 10.5549 5.4922 10.9988 5.49651 11.4482C5.49767 11.5687 5.49883 11.6896 5.49949 11.8108C5.3352 11.8157 5.16858 11.8182 5 11.8182C2.23858 11.8182 0 11.1517 0 10.3294V9.07667C1.10596 9.71435 2.93318 10.131 5.00005 10.131C5.17176 10.131 5.34182 10.1281 5.50995 10.1224Z" fill="#AFB1B3"/>
<path fill-rule="evenodd" clip-rule="evenodd" d="M15.6456 12.0155L15.6456 15.5871L14.3872 14.3277C13.6029 15.1282 12.4916 15.6008 11.2845 15.5375C9.29176 15.4331 7.71156 13.9037 7.4795 11.9885L8.84058 12.1068C9.10844 13.2635 10.1149 14.1522 11.3598 14.2175C12.1761 14.2603 12.9276 13.9402 13.4574 13.3982L12.0739 12.0155L15.6456 12.0155ZM11.708 7.45646C13.6743 7.5595 15.2389 9.04985 15.503 10.9293L14.1505 10.8115C13.8623 9.68402 12.8692 8.82461 11.6458 8.7605C10.7935 8.71583 10.012 9.06674 9.47952 9.65269L10.9131 11.0862L7.34133 11.0862L7.34133 7.51451L8.54986 8.7239C9.33683 7.88856 10.4722 7.39169 11.708 7.45646Z" fill="#3592C4"/>
</svg>

<svg width="16" height="16" viewBox="0 0 16 16" fill="none" xmlns="http://www.w3.org/2000/svg"><rect id="frame" width="16" height="16" fill="none"/><path fill-rule="evenodd" clip-rule="evenodd" d="M5 3.977c2.761 0 5-.666 5-1.488S7.761 1 5 1s-5 .667-5 1.489c0 .822 2.239 1.488 5 1.488zm5-.061C8.894 4.553 7.067 4.97 5 4.97s-3.894-.417-5-1.054v1.153c0 .822 2.239 1.489 5 1.489s5-.667 5-1.489V3.916zM6.321 7.492c-.425.038-.867.058-1.32.058-2.068 0-3.895-.416-5.001-1.054v1.226c0 .782 2.239 1.416 5 1.416.211 0 .419-.003.623-.01.113-.584.32-1.135.698-1.636zm-.811 2.63c-.022.433-.018.877-.013 1.326l.002.363c-.164.005-.33.007-.499.007-2.761 0-5-.666-5-1.489V9.077c1.106.637 2.933 1.054 5 1.054.172 0 .342-.003.51-.009z" fill="#AFB1B3"/><path fill-rule="evenodd" clip-rule="evenodd" d="M15.646 12.015v3.572l-1.259-1.26a4.047 4.047 0 0 1-6.908-2.34l1.362.12a2.734 2.734 0 0 0 4.616 1.291l-1.383-1.383h3.572zm-3.938-4.559a4.047 4.047 0 0 1 3.795 3.473l-1.353-.117a2.734 2.734 0 0 0-4.67-1.16l1.433 1.434H7.341V7.515L8.55 8.724a4.037 4.037 0 0 1 3.158-1.268z" fill="#3592C4"/></svg>
